X: 345
T: the Kilt is my Delight
O: Trad
R: reel
Z: John Chambers <jc:trillian.mit.edu>
M: C|
L: 1/8
K: D
dB | "D"~A2AB "Bm"ABdf | "Em"edef "A7"edBd | "D"~A2AB "(Bm)"ABdf | "A7"edef  "D"d2 :|
ef | "G" g2ag  "D"f2af | "Em"edef "A7"edBd | "G" g2ag  "D"  f2af | "Em"edef "A7"a2 |]
ef | "G" g2ag  "D"f2af | "Em"edef "A7"edBd | "D"~A2AB "(Bm)"ABdf | "A7"edef  "D"d2 |][a2A2]

%%sep 1 1 500

